X: 32899
T: Postgirl
R: jig
M: 6/8
K: Edorian
|:"Em"ged e~ee|"G"dBA "C"GEE|"G"DEG "D"ABd|"C"edB AGE|
"Em"ged e~ee|"G"dBA "C"GEE|"G"DEG "D"ABd|"C"edB "Em"e3:|
|:"Em"g2 f eBB|"G"gfe "D"BAA|"C"GAB edB|"D"fdf baf|
"Em"g2 f eBB|"G"gfe "D"BAA|"C"GAB edB|"D"fed "Em"e3:|

